X:1
T:Väll then ...
T:Knut Håkanson (1887-1929)
T:Text: Övers. fr Martin Opitz (1597-1639)
T:Väll then som vidt aff höga Klippor
T:Op 36 nr 1
%%score [ 1 2 3 4 ]
L:1/8
Q:1/4=120
M:3/4
K:F
V:1 treble nm="S"
V:2 treble nm="A"
V:3 treble-8 nm="T"
V:4 bass nm="B"
V:1
"^Allegro"!f! B2 A2 G2 | d4 f2 | (e2 d2) c2 | g4 g2 | f2 d2 c2 | B4 A2 | c2 B2 G2 | d6 | z6 | z6 | %10
w: 1.Väll then som|vidt aff|hö- * ga|klip- por|kan vand- ra|på een|ned- * rig|baan,|||
w: 3.I stoor- ha|haaff gå|stoor- * ha|vå- gor,|Storm- vä- der,|klip- por|och hår- dan|vindh;|||
 z6 | d2 _e2 f2 | B4 c2 | d2 g2 _e2 | dc c3 =B | c4 z2 ||[Q:1/4=90]"^Più lento"!p! Ac c2 BA | %17
w: |Han off- ta|vidt från|vä- gen spas-|se- rar aff och|an.|Hvar een fö- lier sit|
w: |Then, klook är|blif- ver|hoos Kiäl- lor-|na i daa- len|sin.||
 GB B2 z2 |!mf!!<(! .A2 !tenuto!d4!<)! |!>(! .d2 !breath!.c2!>)! A2-!mp! | %20
w: e- git sin,|Jagh kiär|hol- ler min|
w: |||
"^rit.""^rit.""^rit.""^rit." A2 G3 ^F |!>(! G6!>)! ::[Q:1/4=120]"^Allegro"!f! B2 A2 G2 | d4 f2 | %24
w: * her- da-|rin.|4.Har Phil- lis|ey gods|
w: ||7.Fast hoon ey|är aff|
 (e2 d2) c2 | g4 g2 | f2 d2 c2 | B4 A2 | (c2 B2) G2 | d6 | z6 | z6 | z6 | d2 _e2 f2 | B4 c2 | %35
w: och stoor- ha|skat- ter,|Så har hoon|dock thet|iagh * be-|giär.||||Then kiär- lek|är migh|
w: e- * dell|stånd- he,|Så är hoon|dock aff|then- * na|verld.||||Har hoon ey|godz, Så|
 (d2 g2) _e2 | dc c3 =B | c4 z2 ||[Q:1/4=90]"^Più lento"!p! Ac c2 BA | GB B2 z2 | %40
w: mehr, * fast|mehr ähn gul- let|kiär.|Hvar een fö- lier sit|e- git sin,|
w: har * hoon|dock thet iagh be-|giär.|||
!mf!!<(! .A2 !tenuto!d4!<)! |!>(! .d2!>)! .c2!mp! A2-"^rit.""^rit.""^rit.""^rit." | A2 G3 ^F | %43
w: Jagh kiär|ho- ler min|* her- da-|
w: |||
!>(! G6!>)! :| %44
w: rin.|
w: |
V:2
 z6 |!f! F2 E2 D2 | A4 c2 | B4 B2 | B2 B2 (A2 | A2) G2 E2 | (F2 D2) C2 | D6 | z6 | z6 | A2 B2 c2 | %11
w: |1.Väll then som|vidt aff|hö- ga|klip- por kan|vand- ra på|een ned- rig|baan,|||Han off- ta|
w: |3.I stoor- ha|haaff gå|stoor- ha|vå- gor, Storm-|* vä- der,|hår- * dan|vindh;|||Then, klook är|
 F4 F2 | (G2 G2) G2 | ^F2 G2 G2 | (_A2 G2) D2 | E4 z2 ||!p! FE E2 GF | _EF F2 z2 | %18
w: vidt från|vä- * gen|spas- se- rar|aff * och|an.|Hvar een fö- lier sit|e- git sin,|
w: blif- ver|hoos lå- ga|Kiäl- lor i|daa- * len|sin.|||
!mf!!<(! .F2 !tenuto!A4!<)! |!>(! .B2!>)! !breath!.G2 F2!mp! | D4 D2 |!>(! D6!>)! :: z6 | %23
w: Jagh kiär|hol- ler min|her- da-|rin.||
w: |||||
!f! F2 E2 D2 | A4 c2 | B4 B2 | B2 B2 A2 | (A2 G2) E2 | (F2 D2) C2 | D6 | z6 | z6 | A2 B2 c2 | %33
w: 4.Har Phil- lis|ey gods|skat- ter,|Så har hoon|dock * thet|iagh * be-|giär.|||Then kiär- lek|
w: 7.Fast hoon ey|är aff|e- dell|stånd- he, Är|hoon dock aff|then- * na|verld.|||Har hoon ey|
 F4 F2 | G4 G2 | ^F2 G2 G2 | _A2 G2 D2 | E4 z2 ||!p! FE E2 GF | _EF F2 z2 | %40
w: hoon om-|fat- tar|Är migh mehr|ähn gul- let|kiär.|Hvar een fö- lier sit|e- git sin,|
w: myck- it|godz, Så|har hoon dock|thet iagh be-|giär.|||
!mf!!<(! .F2 !tenuto!A4!<)! |!>(! .B2 .G2!>)!!mp! F2 | D4 D2 |!>(! D6!>)! :| %44
w: Jagh kiär|ho- ler min|her- da-|rin.|
w: ||||
V:3
 z6 | z6 |!f! c2 B2 A2 | d4 _e2 | (d2 f2) f2 | d4 c2 | A2 G2 G2- | G2 (^FE) F2 | G2 z2 z2 | %9
w: ||1.Väll then som|vidt aff|hö- ga klip-|por kan|vand- ra på|* ned- * rig|baan,|
w: ||3.I stoor- ha|haaff gå|stoor- * ha|vå- gor,|Storm- vä- der,|* hår- * dan|vindh;|
 _e2 f2 g2 | c4 c2 | (B2 c2) d2 | (d2 d2) G2 | A2 d2 _e2 | (f2 d2) g2 | g4 z2 ||!p! cc c2 dd | %17
w: Han off- ta|vidt från|vä- * gen|slip- per, Nähr|han spas- se-|rar aff och|an.|Hvar een fö- lier sit|
w: Then, klook är|blif- ver|hoos * the|lå- * ga|Kiäl- lor i|daa- * len|sin.||
 Bd d2 z2 |!mf!!<(! .c2 !tenuto!f4!<)! |!>(! .f2!>)! !breath!.e2 c2-!mp! | c3 =B A2 | %21
w: e- git sin,|Jagh kiär|hol- ler min|* her- da-|
w: ||||
!>(! =B6!>)! :: z6 | z6 |!f! c2 B2 A2 | d4 _e2 | (d2 f2) f2 | d4 c2 | A2 G2 G2- | G2 (^FE) F2 | %30
w: rin.|||4.Har Phil- lis|ey gods|och stoor- ha|skat- ter,|har hoon thet|* iagh * be-|
w: |||7.Fast hoon ey|är aff|e- * dell|stånd- he,|Så är hoon|* dock * aff|
 G2 z2 z2 | _e2 f2 g2 | c4 c2 | (B2 c2) d2 | d4 G2 | A2 d2 _e2 | f2 d2 g2 | g4 z2 ||!p! cc c2 dd | %39
w: giär.|Then kiär- lek|hoon migh|medh * om-|fat- tar|Är migh mehr|ähn gul- let|kiär.|Hvar een fö- lier sit|
w: verld.|Har hoon ey|myck- it|godz * i|land- he,|Har hoon dock|thet iagh be-|giär.||
 Bd d2 z2 |!mf!!<(! .c2 !tenuto!f4!<)! |!>(! .f2!>)! .e2!mp! c2- | c3 =B A2 |!>(! =B6!>)! :| %44
w: e- git sin,|Jagh kiär|ho- ler min|* her- da-|rin.|
w: |||||
V:4
 z6 | z6 | z6!f! | G,2 F,2 _E,2 | B,4 F,2 | G,4 A,2 | F,2 (G,F,) _E,2 | D,6 | B,2 C2 D2 | G,4 G,2 | %10
w: |||1.Väll then som|vand- ra|kan på|een ned- * rig|baan,|Han off- ta|vidt från|
w: |||3.I stoor- ha|haaff gå|stoor- ha|vå- gor, * och|vindh;|Then, som klook|är blif-|
 (F,2 G,2) A,2 | B,4 B,2 | G,2 F,2 _E,2 | (D,2 =B,,2) C,2 | F,2 G,4 | C,4 z2 ||!p! F,A, A,2 G,D, | %17
w: vä- * gen|slip- per,|Nähr han spas-|se- * rar|aff och|an.|Hvar een fö- lier sit|
w: ver hoos the|lå- ga|Kiäl- lor som|fin- nas i|daa- len|sin.||
 _E,B,, B,,2 z2 |!mf!!<(! .F,2 !tenuto!D,4!<)! |!>(! .B,,2!>)! !breath!.C,2 F,2!mp! | G,4 D,2 | %21
w: e- git sin,|Jagh kiär|hol- ler min|her- da-|
w: ||||
!>(! G,,6!>)! :: z6 | z6 | z6!f! | G,2 F,2 _E,2 | B,4 F,2 | G,2 G,2 A,2 | F,2 (G,F,) _E,2 | D,6 | %30
w: rin.||||4.Har Phil- lis|ey gods|har hoon dock|thet iagh * be-|giär.|
w: ||||7.Fast hoon ey|är aff|stånd- he, Är|hoon dock * aff|verld.|
 B,2 C2 D2 | G,4 G,2 | (F,2 G,2) A,2 | B,4 B,2 | G,2 F,2 _E,2 | (D,2 =B,,2) C,2 | F,2 G,4 | %37
w: Then kiär- lek|hoon migh|medh * om-|fat- tar|Är migh fast|mehr * ähn|gul- let|
w: Har hoon ey|myck- it|godz * i|land- he,|Så har hoon|dock * thet|iagh be-|
 C,4 z2 ||!p! F,A, A,2 G,D, | _E,B,, B,,2 z2 |!mf!!<(! .F,2 !tenuto!D,4!<)! | %41
w: kiär.|Hvar een fö- lier sit|e- git sin,|Jagh kiär|
w: giär.||||
!>(! .B,,2!>)! .C,2!mp! F,2 | G,4 D,2 |!>(! G,,6!>)! :| %44
w: ho- ler min|her- da-|rin.|
w: |||

